X: 27878
T: Mountain Ash, The
R: reel
M: 4/4
K: Edorian
EF|:G3F GABA|GEAG FD D2|GEEF GABA|GEFD GEEF|
G3F GABc|dBAG FD D2|BEGA Beec|dBAF GE E2:|
|:Beed edBA|G3A FD D2|Beed edBA|Beed e3f|
g3f eB B2|dABd FE E2|BEGA Beec|dBAF GE E2:|
|:G3F GABA|GEFG FE E2|G2EF GABA|GEFD GEEF|
G3F GABc|dBAG FD D2|BEGA Beec|dBAF GE E2:|
|:Beed edBA|G3A FD D2|Beed edBA|Beed e3f|
feed edBA|G3A FD D2|BEGA Beec|dBAF GE E2:|

